svgs/light/torii-gate.svg

<svg xmlns="http://www.w3.org/2000/svg" viewBox="0 0 512 512"><!--! Font Awesome Pro 6.1.1 by @fontawesome - https://fontawesome.com License - https://fontawesome.com/license (Commercial License) Copyright 2022 Fonticons, Inc. --><path d="M16 288C7.164 288 0 280.8 0 272C0 263.2 7.164 256 16 256H64V176C28.65 176 0 147.3 0 112V0L71.37 23.79C87.68 29.23 104.8 32 121.1 32H390C407.2 32 424.3 29.23 440.6 23.79L512 0V112C512 147.3 483.3 176 448 176V256H496C504.8 256 512 263.2 512 272C512 280.8 504.8 288 496 288H448V496C448 504.8 440.8 512 432 512C423.2 512 416 504.8 416 496V288H96V496C96 504.8 88.84 512 80 512C71.16 512 64 504.8 64 496V288H16zM64 144H448C465.7 144 480 129.7 480 112V44.4L450.8 54.15C431.2 60.67 410.7 64 390 64H121.1C101.3 64 80.83 60.67 61.25 54.15L32 44.4V112C32 129.7 46.33 144 64 144V144zM240 176H96V256H240V176zM416 256V176H272V256H416z"/></svg>

<svg xmlns="http://www.w3.org/2000/svg" viewBox="0 0 512 512"><!--! Font Awesome Pro 6.4.2 by @fontawesome - https://fontawesome.com License - https://fontawesome.com/license (Commercial License) Copyright 2023 Fonticons, Inc. --><path d="M32 112c0 17.7 14.3 32 32 32l176 0h32l176 0c17.7 0 32-14.3 32-32V40.9l-23.5 9.4C433.8 59.3 409.6 64 385.2 64H126.8c-24.4 0-48.6-4.7-71.3-13.7L32 40.9V112zm208 64H96v80l144 0V176zM64 176c-35.3 0-64-28.7-64-64V13.4C0 6 6 0 13.4 0c1.7 0 3.4 .3 5 1l49 19.6C86.3 28.1 106.5 32 126.8 32H385.2c20.4 0 40.5-3.9 59.4-11.4L493.6 1c1.6-.6 3.3-1 5-1C506 0 512 6 512 13.4V112c0 35.3-28.7 64-64 64v80h48c8.8 0 16 7.2 16 16s-7.2 16-16 16H448V496c0 8.8-7.2 16-16 16s-16-7.2-16-16V288l-160 0L96 288V496c0 8.8-7.2 16-16 16s-16-7.2-16-16V288H16c-8.8 0-16-7.2-16-16s7.2-16 16-16H64V176zm352 0H272v80l144 0V176z"/></svg>
